icons/mjml.svg

<svg xmlns="http://www.w3.org/2000/svg" viewBox="0 0 27.96 24.79"><g data-name="Calque 2"><path d="M3.38 6.58H16A3.3 3.3 0 0019.18 2 3.37 3.37 0 0016 0H4.29a6.06 6.06 0 00-1.93.18A3.23 3.23 0 000 3.65a3.3 3.3 0 003.38 2.93zm18.14-2.19a3.31 3.31 0 004.25 2h.05a3.21 3.21 0 002-4.1 3.34 3.34 0 00-4-2.08 3.23 3.23 0 00-2.47 3.47 3.31 3.31 0 00.17.71zm3.12 4.95H12.87a9 9 0 00-1.93.11 3.24 3.24 0 00-2.38 3.45 3.2 3.2 0 003.17 2.94h13.05a3.25 3.25 0 10-.15-6.49zm-8.37 8.96H3.85a7.36 7.36 0 00-1.32.08 3.25 3.25 0 00.63 6.42h13.09a3.3 3.3 0 003.2-3.09v-.07a3.26 3.26 0 00-3.18-3.34zm7.31.14a3.18 3.18 0 00-2.26 3 3.31 3.31 0 106.42-1.1 3.36 3.36 0 00-4.16-1.9zM2.36 9.41a3.32 3.32 0 104.14 2.22 3.34 3.34 0 00-4.14-2.22z" fill="#e64a19" data-name="Calque 1"/></g></svg>

<svg xmlns="http://www.w3.org/2000/svg" viewBox="0 0 27.96 24.79"><defs><style>.cls-1{fill:#e64a19;}</style></defs><title>mjml</title><g id="Calque_2" data-name="Calque 2"><g id="Calque_1-2" data-name="Calque 1"><path class="cls-1" d="M3.38,6.58H16A3.3,3.3,0,0,0,19.18,2,3.37,3.37,0,0,0,16,0H4.29A6.06,6.06,0,0,0,2.36.18,3.23,3.23,0,0,0,0,3.65,3.3,3.3,0,0,0,3.38,6.58Z"/><path class="cls-1" d="M21.52,4.39a3.31,3.31,0,0,0,4.25,2l.05,0a3.21,3.21,0,0,0,2-4.1,3.34,3.34,0,0,0-4-2.08,3.23,3.23,0,0,0-2.47,3.47A3.31,3.31,0,0,0,21.52,4.39Z"/><path class="cls-1" d="M24.64,9.34H12.87a9,9,0,0,0-1.93.11,3.24,3.24,0,0,0-2.38,3.45,3.2,3.2,0,0,0,3.17,2.94H24.78a3.25,3.25,0,1,0-.15-6.49Z"/><path class="cls-1" d="M16.27,18.3c-4.14,0-8.28,0-12.42,0a7.36,7.36,0,0,0-1.32.08h0a3.25,3.25,0,0,0,.63,6.42H16.25a3.3,3.3,0,0,0,3.2-3.09v-.07A3.26,3.26,0,0,0,16.27,18.3Z"/><path class="cls-1" d="M23.58,18.44a3.18,3.18,0,0,0-2.26,3,3.31,3.31,0,1,0,6.42-1.1A3.36,3.36,0,0,0,23.58,18.44Z"/><path class="cls-1" d="M2.36,9.41A3.32,3.32,0,1,0,6.5,11.63,3.34,3.34,0,0,0,2.36,9.41Z"/></g></g></svg>
